X: 30486
T: Old Wooden Bridge
R: reel
M: 4/4
K: Dmajor
|:D2 ED FA ~A2|BAFB AFED|E2 BE dB ~B2|BAFB AFEF|
D3 EF A ~A2|BAFB AFED|dfef d3B|1 AdGE FDDE:|2 AdGE FDFA||
|:f3 a g2 fg|abag fddA|agfg agfe|d2 af ge ~e2|
fdfa g2 fg|a^ga=g fddA|dfef d3 B|1 AdGE FDFA:|2 AdGE FD D2||

